icons/file-chart-fill.svg

<svg viewBox="0 0 24 24" fill="currentColor" xmlns="http://www.w3.org/2000/svg"><path d="M16 2L21 7V21.0082C21 21.556 20.5551 22 20.0066 22H3.9934C3.44476 22 3 21.5447 3 21.0082V2.9918C3 2.44405 3.44495 2 3.9934 2H16ZM11 7V17H13V7H11ZM15 11V17H17V11H15ZM7 13V17H9V13H7Z"/></svg>

<svg xmlns="http://www.w3.org/2000/svg" viewBox="0 0 24 24">
    <g>
        <path fill="none" d="M0 0h24v24H0z"/>
        <path d="M16 2l5 5v14.008a.993.993 0 0 1-.993.992H3.993A1 1 0 0 1 3 21.008V2.992C3 2.444 3.445 2 3.993 2H16zm-5 5v10h2V7h-2zm4 4v6h2v-6h-2zm-8 2v4h2v-4H7z"/>
    </g>
</svg>
